src/images/svg/symbols/avalanche.svg

<svg width="33" height="32" viewBox="0 0 33 32" fill="none" xmlns="http://www.w3.org/2000/svg">
<path d="M2.11328 11C2.11328 6.02944 6.14272 2 11.1133 2C16.0838 2 20.1133 6.02944 20.1133 11C20.1133 15.9706 16.0838 20 11.1133 20C6.14272 20 2.11328 15.9706 2.11328 11Z" fill="#E84142"/>
<path d="M6.78503 15.0415H8.52936C8.94006 15.0415 9.14539 15.0415 9.32866 14.9908C9.52959 14.9311 9.71286 14.8252 9.86521 14.6794C10.0583 14.4954 10.1807 14.2388 10.3112 14.0104L12.5736 10.0112C12.7745 9.66016 12.8739 9.48351 12.918 9.29804C12.9666 9.09711 12.9666 8.88514 12.918 8.68421C12.8742 8.50014 12.7738 8.32476 12.5759 7.97892L11.6859 6.42542C11.5027 6.10305 11.4099 5.94186 11.2929 5.88225C11.1671 5.81822 11.0169 5.81822 10.8911 5.88225C10.774 5.94186 10.6813 6.10305 10.498 6.42542L6.19108 14.017C6.01003 14.335 5.91949 14.494 5.92612 14.6242C5.93495 14.7656 6.00781 14.8936 6.12705 14.9709C6.23745 15.0415 6.4185 15.0415 6.78503 15.0415Z" fill="white"/>
<path d="M15.4338 15.0415H12.9344C12.5656 15.0415 12.3801 15.0415 12.2719 14.9709C12.1527 14.8936 12.0799 14.7634 12.071 14.6221C12.0644 14.4928 12.1557 14.3353 12.3383 14.0201L13.5901 11.8709C13.7734 11.5551 13.8661 11.3984 13.981 11.3388C14.1067 11.2747 14.2548 11.2747 14.3806 11.3388C14.4946 11.3968 14.5833 11.5469 14.7591 11.8441L16.0437 14.0416C16.2172 14.341 16.3058 14.4939 16.2994 14.6199C16.2927 14.7611 16.2177 14.8915 16.0985 14.9688C15.988 15.0415 15.8025 15.0415 15.4338 15.0415Z" fill="white"/>
<path d="M12.1133 21C12.1133 16.0294 16.1427 12 21.1133 12C26.0838 12 30.1133 16.0294 30.1133 21C30.1133 25.9706 26.0838 30 21.1133 30C16.1427 30 12.1133 25.9706 12.1133 21Z" fill="white"/>
<path fill-rule="evenodd" clip-rule="evenodd" d="M20.7326 12C18.9993 12.0999 17.3987 12.6903 16.0656 13.6331H26.4516C25.1184 12.6903 23.5178 12.0999 21.7845 12H21.5076H20.7326ZM14.3057 15.2657C13.893 15.7672 13.5355 16.3149 13.2382 16.8987L24.0605 16.8988H29.279C28.9816 16.3151 28.6244 15.7673 28.2114 15.2658L24.2144 15.2657H14.3057ZM12.1504 20.1809C12.1995 19.6202 12.3008 19.0747 12.4486 18.5483H29.7656C29.9135 19.0746 30.0147 19.6202 30.064 20.1809H12.1504ZM12.1538 21.8143C12.2059 22.3753 12.3109 22.9208 12.4617 23.4469H29.7527C29.9037 22.9208 30.0085 22.3752 30.0606 21.8143H12.1538ZM14.1925 26.7129C13.7747 26.212 13.412 25.6642 13.1102 25.08H24.4614L29.1041 25.08C28.8023 25.6643 28.4396 26.212 28.0218 26.7129H23.6433L14.1925 26.7129ZM20.7266 29.969L20.7539 29.97L20.7811 29.971C20.8894 29.9749 20.9979 29.9775 21.1071 29.9775C23.0138 29.9775 24.7805 29.3734 26.2356 28.3463L23.3454 28.3462H15.9788C17.3363 29.3046 18.9657 29.8945 20.7266 29.969Z" fill="#F44336"/>
<path d="M20.922 12.0046C16.3131 12.0984 12.5566 15.6569 12.1523 20.1834H20.9221V12.0046H20.922Z" fill="#283991"/>
<path d="M13.9129 17.085L14.05 17.506H14.4939L14.1348 17.7663L14.2719 18.1876L13.9129 17.9271L13.5541 18.1876L13.691 17.7663L13.332 17.506H13.7759L13.9129 17.085Z" fill="#EFEFEF"/>
<path d="M13.9129 18.5724L14.05 18.9936H14.4939L14.1348 19.254L14.2719 19.6753L13.9129 19.4148L13.5541 19.6753L13.691 19.254L13.332 18.9936H13.7759L13.9129 18.5724Z" fill="#EFEFEF"/>
<path d="M15.4037 14.8533L15.5408 15.2745H15.9846L15.6255 15.535L15.7626 15.956L15.4037 15.6958L15.0447 15.956L15.1818 15.535L14.8226 15.2745H15.2665L15.4037 14.8533Z" fill="#EFEFEF"/>
<path d="M15.4037 16.341L15.5408 16.7621H15.9846L15.6255 17.0223L15.7626 17.4436L15.4037 17.1835L15.0447 17.4436L15.1818 17.0223L14.8226 16.7621H15.2665L15.4037 16.341Z" fill="#EFEFEF"/>
<path d="M15.4037 17.8287L15.5408 18.25H15.9846L15.6255 18.51L15.7626 18.9313L15.4037 18.6709L15.0447 18.9313L15.1818 18.51L14.8226 18.25H15.2665L15.4037 17.8287Z" fill="#EFEFEF"/>
<path d="M12.7811 18.9313L12.6439 18.51L13.003 18.2498H12.5593L12.5493 18.2191C12.5006 18.3694 12.4566 18.5216 12.416 18.6755L12.4223 18.6709L12.7811 18.9313Z" fill="#EFEFEF"/>
<path d="M13.5541 16.7L13.9129 16.4395L14.2719 16.7L14.1348 16.2786L14.4938 16.0182H14.0499L13.9128 15.5972L13.7758 16.0182H13.6122C13.5818 16.0641 13.5524 16.1103 13.5229 16.1569L13.691 16.2786L13.5541 16.7Z" fill="#EFEFEF"/>
<path d="M15.4037 14.2081L15.7626 14.4683L15.6256 14.0473L15.9844 13.7868H15.7281C15.5104 13.9493 15.3003 14.1211 15.0985 14.3025L15.0444 14.4683L15.4037 14.2081Z" fill="#EFEFEF"/>
<path d="M16.5355 13.7246L16.8946 13.4642L17.2534 13.7246L17.1164 13.3033L17.4752 13.0431H17.0315L17.0128 12.9864C16.8625 13.0631 16.7136 13.1428 16.5682 13.2277L16.6724 13.3033L16.5355 13.7246Z" fill="#EFEFEF"/>
<path d="M16.8945 14.1096L17.0316 14.5305H17.4754L17.1163 14.791L17.2534 15.2123L16.8945 14.9518L16.5355 15.2123L16.6726 14.791L16.3134 14.5305H16.7573L16.8945 14.1096Z" fill="#EFEFEF"/>
<path d="M16.8945 15.5973L17.0316 16.0182H17.4754L17.1163 16.2786L17.2534 16.7L16.8945 16.4395L16.5355 16.7L16.6726 16.2786L16.3134 16.0182H16.7573L16.8945 15.5973Z" fill="#EFEFEF"/>
<path d="M16.8945 17.085L17.0316 17.506H17.4754L17.1163 17.7663L17.2534 18.1876L16.8945 17.9271L16.5355 18.1876L16.6726 17.7663L16.3134 17.506H16.7573L16.8945 17.085Z" fill="#EFEFEF"/>
<path d="M16.8945 18.5724L17.0316 18.9936H17.4754L17.1163 19.254L17.2534 19.6753L16.8945 19.4148L16.5355 19.6753L16.6726 19.254L16.3134 18.9936H16.7573L16.8945 18.5724Z" fill="#EFEFEF"/>
<path d="M18.3853 13.3656L18.5224 13.7868H18.9662L18.6073 14.0473L18.7442 14.4683L18.3853 14.2081L18.0262 14.4683L18.1634 14.0473L17.8043 13.7868H18.2481L18.3853 13.3656Z" fill="#EFEFEF"/>
<path d="M18.3853 14.8533L18.5224 15.2745H18.9662L18.6073 15.535L18.7442 15.956L18.3853 15.6958L18.0262 15.956L18.1634 15.535L17.8043 15.2745H18.2481L18.3853 14.8533Z" fill="#EFEFEF"/>
<path d="M18.3853 16.341L18.5224 16.7621H18.9662L18.6073 17.0223L18.7442 17.4436L18.3853 17.1835L18.0262 17.4436L18.1634 17.0223L17.8043 16.7621H18.2481L18.3853 16.341Z" fill="#EFEFEF"/>
<path d="M18.3853 17.8287L18.5224 18.25H18.9662L18.6073 18.51L18.7442 18.9313L18.3853 18.6709L18.0262 18.9313L18.1634 18.51L17.8043 18.25H18.2481L18.3853 17.8287Z" fill="#EFEFEF"/>
<path d="M19.8762 12.6219L20.0132 13.0431H20.457L20.098 13.3033L20.235 13.7246L19.8762 13.4641L19.517 13.7246L19.6542 13.3033L19.2951 13.0431H19.7388L19.8762 12.6219Z" fill="#EFEFEF"/>
<path d="M19.8762 14.1096L20.0132 14.5305H20.457L20.098 14.791L20.235 15.2123L19.8762 14.9518L19.517 15.2123L19.6542 14.791L19.2951 14.5305H19.7388L19.8762 14.1096Z" fill="#EFEFEF"/>
<path d="M19.8762 15.5973L20.0132 16.0182H20.457L20.098 16.2786L20.235 16.7L19.8762 16.4395L19.517 16.7L19.6542 16.2786L19.2951 16.0182H19.7388L19.8762 15.5973Z" fill="#EFEFEF"/>
<path d="M19.8762 17.085L20.0132 17.506H20.457L20.098 17.7663L20.235 18.1876L19.8762 17.9271L19.517 18.1876L19.6542 17.7663L19.2951 17.506H19.7388L19.8762 17.085Z" fill="#EFEFEF"/>
<path d="M19.8762 18.5724L20.0132 18.9936H20.457L20.098 19.254L20.235 19.6753L19.8762 19.4148L19.517 19.6753L19.6542 19.254L19.2951 18.9936H19.7388L19.8762 18.5724Z" fill="#EFEFEF"/>
</svg>

<svg width="33" height="32" fill="none" xmlns="http://www.w3.org/2000/svg"><path d="M2.113 11a9 9 0 1 1 18 0 9 9 0 0 1-18 0Z" fill="#E84142"/><path d="M6.785 15.041h1.744c.411 0 .616 0 .8-.05.2-.06.384-.166.536-.312.193-.184.316-.44.446-.669l2.263-3.999c.2-.35.3-.527.344-.713a1.31 1.31 0 0 0 0-.614c-.044-.184-.144-.36-.342-.705l-.89-1.554c-.183-.322-.276-.483-.393-.543a.444.444 0 0 0-.402 0c-.117.06-.21.221-.393.543l-4.307 7.592c-.181.318-.272.477-.265.607.009.142.082.27.201.347.11.07.292.07.658.07ZM15.434 15.041h-2.5c-.368 0-.554 0-.662-.07a.447.447 0 0 1-.201-.349c-.007-.13.085-.287.267-.602l1.252-2.15c.183-.315.276-.472.391-.531a.44.44 0 0 1 .4 0c.114.058.202.208.378.505l1.285 2.198c.173.299.262.452.255.578a.442.442 0 0 1-.2.349c-.111.072-.296.072-.665.072Z" fill="#fff"/><path d="M12.113 21a9 9 0 1 1 18 0 9 9 0 0 1-18 0Z" fill="#fff"/><path fill-rule="evenodd" clip-rule="evenodd" d="M20.733 12c-1.734.1-3.334.69-4.667 1.633h10.386A8.956 8.956 0 0 0 21.784 12H20.733Zm-6.427 3.266a8.985 8.985 0 0 0-1.068 1.633H29.28a8.978 8.978 0 0 0-1.068-1.633H14.306ZM12.15 20.18c.05-.56.15-1.106.299-1.633h17.317c.148.527.249 1.072.298 1.633H12.15Zm.004 1.633c.052.561.157 1.107.308 1.633h17.29a8.897 8.897 0 0 0 .309-1.633H12.154Zm2.039 4.899a8.99 8.99 0 0 1-1.083-1.633h15.994a8.987 8.987 0 0 1-1.082 1.633H14.193Zm6.534 3.256.027.001.027.001a8.86 8.86 0 0 0 5.455-1.625H15.979a8.859 8.859 0 0 0 4.748 1.623Z" fill="#F44336"/><path d="M20.922 12.005a8.991 8.991 0 0 0-8.77 8.178h8.77v-8.178Z" fill="#283991"/><path d="m13.913 17.085.137.421h.444l-.36.26.138.422-.36-.26-.358.26.137-.422-.359-.26h.444l.137-.421ZM13.913 18.572l.137.422h.444l-.36.26.138.421-.36-.26-.358.26.137-.421-.359-.26h.444l.137-.422ZM15.404 14.853l.137.421h.444l-.36.261.138.421-.36-.26-.358.26.137-.421-.36-.26h.445l.137-.422ZM15.404 16.341l.137.421h.444l-.36.26.138.422-.36-.26-.358.26.137-.422-.36-.26h.445l.137-.421ZM15.404 17.829l.137.421h.444l-.36.26.138.421-.36-.26-.358.26.137-.421-.36-.26h.445l.137-.421ZM12.781 18.931l-.137-.421.359-.26h-.444l-.01-.03a8.58 8.58 0 0 0-.133.456l.006-.005.36.26ZM13.554 16.7l.359-.26.359.26-.137-.421.359-.26h-.444l-.137-.422-.137.421h-.164l-.09.139.169.122-.137.421ZM15.404 14.208l.359.26-.137-.42.358-.261h-.256a8.944 8.944 0 0 0-.63.515l-.054.166.36-.26ZM16.535 13.725l.36-.26.358.26-.137-.422.36-.26h-.444l-.02-.057c-.15.077-.298.157-.444.242l.104.075-.137.422ZM16.895 14.11l.137.42h.443l-.359.261.137.421-.358-.26-.36.26.138-.421-.36-.26h.444l.137-.421ZM16.895 15.597l.137.421h.443l-.359.26.137.422-.358-.26-.36.26.138-.421-.36-.26h.444l.137-.422ZM16.895 17.085l.137.421h.443l-.359.26.137.422-.358-.26-.36.26.138-.422-.36-.26h.444l.137-.421ZM16.895 18.572l.137.422h.443l-.359.26.137.421-.358-.26-.36.26.138-.421-.36-.26h.444l.137-.422ZM18.385 13.366l.137.42h.444l-.359.261.137.421-.359-.26-.359.26.137-.42-.359-.261h.444l.137-.421ZM18.385 14.853l.137.421h.444l-.359.261.137.421-.359-.26-.359.26.137-.421-.359-.26h.444l.137-.422ZM18.385 16.341l.137.421h.444l-.359.26.137.422-.359-.26-.359.26.137-.422-.359-.26h.444l.137-.421ZM18.385 17.829l.137.421h.444l-.359.26.137.421-.359-.26-.359.26.137-.421-.359-.26h.444l.137-.421ZM19.876 12.622l.137.421h.444l-.359.26.137.422-.359-.26-.359.26.137-.422-.359-.26h.444l.137-.421ZM19.876 14.11l.137.42h.444l-.359.261.137.421-.359-.26-.359.26.137-.421-.359-.26h.444l.137-.421ZM19.876 15.597l.137.421h.444l-.359.26.137.422-.359-.26-.359.26.137-.421-.359-.26h.444l.137-.422ZM19.876 17.085l.137.421h.444l-.359.26.137.422-.359-.26-.359.26.137-.422-.359-.26h.444l.137-.421ZM19.876 18.572l.137.422h.444l-.359.26.137.421-.359-.26-.359.26.137-.421-.359-.26h.444l.137-.422Z" fill="#EFEFEF"/></svg>
